flaticon/essential/like.svg

<svg xmlns="http://www.w3.org/2000/svg" width="32" height="32" viewBox="0 0 24 24">
    <path d="M 3.929688 17.792969 C 2.789062 17.792969 1.863281 18.722656 1.863281 19.863281 C 1.863281 21.003906 2.789062 21.929688 3.929688 21.929688 C 5.070312 21.929688 6 21.003906 6 19.863281 C 6 18.722656 5.070312 17.792969 3.929688 17.792969 Z M 3.929688 21.101562 C 3.246094 21.101562 2.691406 20.546875 2.691406 19.863281 C 2.691406 19.175781 3.246094 18.621094 3.929688 18.621094 C 4.617188 18.621094 5.171875 19.175781 5.171875 19.863281 C 5.171875 20.546875 4.617188 21.101562 3.929688 21.101562 Z M 3.929688 21.101562"/>
    <path d="M 23.378906 14.484375 C 23.378906 13.449219 22.808594 12.96875 22.257812 12.730469 C 22.691406 12.351562 22.964844 11.792969 22.964844 11.171875 C 22.964844 10.03125 22.039062 9.101562 20.898438 9.101562 L 14.953125 9.101562 L 15.253906 7.691406 C 15.65625 5.808594 15.390625 3.671875 15.300781 3.0625 C 15.085938 1.617188 13.808594 0 12.417969 0 L 12.320312 0 C 11.660156 0 10.550781 0.375 10.550781 2.898438 C 10.550781 6.214844 9.722656 7.734375 9.027344 8.425781 C 8.347656 9.101562 7.691406 9.09375 7.65625 9.101562 L 7.242188 9.101562 L 7.242188 8.277344 L 0.621094 8.277344 L 0.621094 24 L 7.242188 24 L 7.242188 23.171875 L 18.828125 23.171875 C 19.96875 23.171875 20.898438 22.246094 20.898438 21.101562 C 20.898438 20.621094 20.730469 20.179688 20.453125 19.824219 C 21.410156 19.644531 22.136719 18.800781 22.136719 17.792969 C 22.136719 17.3125 21.972656 16.867188 21.695312 16.515625 C 22.652344 16.335938 23.378906 15.492188 23.378906 14.484375 Z M 1.449219 23.171875 L 1.449219 9.101562 L 6.414062 9.101562 L 6.414062 23.171875 Z M 21.308594 15.722656 L 16.757812 15.722656 C 16.53125 15.722656 16.34375 15.910156 16.34375 16.136719 C 16.34375 16.367188 16.53125 16.550781 16.757812 16.550781 L 20.070312 16.550781 C 20.753906 16.550781 21.308594 17.109375 21.308594 17.792969 C 21.308594 18.476562 20.753906 19.035156 20.070312 19.035156 L 15.929688 19.035156 C 15.703125 19.035156 15.515625 19.21875 15.515625 19.449219 C 15.515625 19.675781 15.703125 19.863281 15.929688 19.863281 L 18.828125 19.863281 C 19.511719 19.863281 20.070312 20.417969 20.070312 21.101562 C 20.070312 21.789062 19.511719 22.34375 18.828125 22.34375 L 7.242188 22.34375 L 7.242188 9.929688 L 7.640625 9.929688 C 7.683594 9.9375 8.644531 9.953125 9.578125 9.042969 C 10.773438 7.886719 11.378906 5.816406 11.378906 2.898438 C 11.378906 2.125 11.5 0.828125 12.320312 0.828125 L 12.417969 0.828125 C 13.34375 0.828125 14.324219 2.121094 14.484375 3.183594 C 14.570312 3.757812 14.816406 5.773438 14.445312 7.519531 L 13.929688 9.929688 L 20.898438 9.929688 C 21.582031 9.929688 22.136719 10.488281 22.136719 11.171875 C 22.136719 11.855469 21.582031 12.414062 20.898438 12.414062 L 16.757812 12.414062 C 16.53125 12.414062 16.34375 12.597656 16.34375 12.828125 C 16.34375 13.054688 16.53125 13.242188 16.757812 13.242188 L 19.65625 13.242188 C 20.019531 13.242188 20.824219 13.257812 21.25 13.320312 C 22.332031 13.480469 22.550781 13.902344 22.550781 14.484375 C 22.550781 15.167969 21.996094 15.722656 21.308594 15.722656 Z M 21.308594 15.722656"/>
</svg>

<svg xmlns="http://www.w3.org/2000/svg" width="32" height="32" viewBox="0 0 24 24">
    <path d="M3.93 17.793A2.067 2.067 0 1 0 6 19.863c0-1.14-.93-2.07-2.07-2.07zm0 3.309a1.24 1.24 0 1 1 1.242-1.238 1.24 1.24 0 0 1-1.242 1.238zm0 0"/>
    <path d="M23.379 14.484c0-1.035-.57-1.515-1.121-1.754a2.07 2.07 0 0 0-1.36-3.629h-5.945l.3-1.41c.403-1.882.138-4.02.048-4.628C15.086 1.617 13.809 0 12.418 0h-.098c-.66 0-1.77.375-1.77 2.898 0 3.317-.827 4.836-1.523 5.528-.68.676-1.336.668-1.37.676h-.415v-.825H.622V24h6.62v-.828h11.586c1.14 0 2.07-.926 2.07-2.07 0-.48-.168-.922-.445-1.278a2.07 2.07 0 0 0 1.242-3.308 2.07 2.07 0 0 0 1.684-2.032zm-21.93 8.688V9.102h4.965v14.07zm19.86-7.45h-4.551a.414.414 0 0 0 0 .828h3.312a1.242 1.242 0 0 1 0 2.485h-4.14a.414.414 0 0 0 0 .828h2.898c.684 0 1.242.555 1.242 1.239 0 .687-.558 1.242-1.242 1.242H7.242V9.93h.399c.043.008 1.004.023 1.937-.887 1.195-1.156 1.8-3.227 1.8-6.145 0-.773.122-2.07.942-2.07h.098c.926 0 1.906 1.293 2.066 2.356.086.574.332 2.59-.039 4.336l-.515 2.41h6.968a1.242 1.242 0 0 1 0 2.484h-4.14a.414.414 0 0 0 0 .828h2.898c.364 0 1.168.016 1.594.078 1.082.16 1.3.582 1.3 1.164a1.24 1.24 0 0 1-1.241 1.239zm0 0"/>
</svg>
